X: 33530
T: Rainy Day, The
R: reel
M: 4/4
K: Adorian
G|EAAG A3B|cdef gedc|BGGF G2dG|~G2dG eGdG|
EAAG A3B|c2AB cdef|~g3e dBGA|BGdB A3:|
d|eaag a2ga|ba~a2 baag|eggf ~g3a|bg~g2 bgag|
ea~a2 aged|cdef g2ag|eaag egdB|BGdB A3:|
K: Gdor
F|DGGF G3A|Bcde fdcB|AFFE F2cF|~F2cF dFcF|
DGGF G3A|B2GA Bcde|~f3d cAFG|AFcA G3:|
c|dggf g2fg|ag~g2 aggf|dffe ~f3g|af~f2 afgf|
dg~g2 gfdc|Bcde f2gf|dggf dfcA|AFcA G3:|

